X:247
T:Forest. VWMLa.247, The
%%VWML:Anon2-3049-p164-0
F:http://www.vwml.org/record/Anon2/3049/p164
S:Anon. MS, late 18thC, Vaughan Williams Mem. Library
O:England;Yorkshire
Z:vmp/efdss.Simon Wilson. Reviewed PJH 2008.
M:6/8
L:1/8
Q:3/8=120
K:F
(f2e) (g2f)|a3 bge|f2f (f/g/a).f|d3 c3|\
(f2e) (g2f)|a3 bge|f2f g2e|f3 F3:|
|:ABc ABc|dcB dcB|g2a b2g|(e/f/g).e c2B|\
ABc ABc|dcB dcB|g2a bge|f3 F3:|
T:Ah Ca Ira. VWMLa.248
T:Ca Ira. VWMLa.248
R:Air
S:Anon. MS, late 18thC, Vaughan Williams Mem. Library
N:I added the second title, for search programs. PJH.
N:Odd placing for the bar lines. PJH.
O:England;Yorkshire
Z:vmp/efdss.Simon Wilson. Reviewed PJH 2008.
M:2/4
L:1/16
Q:1/4=90
K:G
(G2GA)|.G2(GA) .G2(GA)|G4 GABc|\
dBed dccB|B2A2 G2GA|\
G2GA G2GA|G4 GABc|dBec B2A2|G4:|
B2dB|cBAG FGAF|D4 B2dB|cBAG FAB^c|d4 d2de|\
d2de d2de|d4 defg|afba aggf|f2e2 d2de|
d2de d2de|d4 defg|afbg f2e2|d4 dcBA|\
^G2G2 G2G2|A4 cBAG|
F2F2 F2F2|G2G2 A2B2|\
c2cB c2d2|B2G2 A2B2|c2cB AGFE|!D.C.!D4|]
